svgs/secure_folder.svg

<svg width="192" height="192" viewBox="0 0 192 192" fill="none" xmlns="http://www.w3.org/2000/svg">
<path d="M110.5 49.9399H42.5C31.4543 49.9399 23 58.9543 23 70V86M96 49.9399V42C96 35.3726 90.6274 30 84 30H35C28.3726 30 23 35.3726 23 42L23 150C23 156.627 28.3726 162 35 162H157C163.627 162 169 156.627 169 150V61.9399C169 55.3125 163.627 49.9399 157 49.9399H96Z" stroke="black" stroke-width="12"/>
<circle cx="98" cy="96" r="17" fill="black"/>
<path d="M98 107V126.94" stroke="black" stroke-width="12" stroke-linecap="round"/>
</svg>

<svg width="192" height="192" viewBox="0 0 192 192" fill="none" xmlns="http://www.w3.org/2000/svg"><path d="M110.5 49.94h-68C31.454 49.94 23 58.954 23 70v16m73-36.06V42c0-6.627-5.373-12-12-12H35c-6.627 0-12 5.373-12 12v108c0 6.627 5.373 12 12 12h122c6.627 0 12-5.373 12-12V61.94c0-6.627-5.373-12-12-12H96Z" stroke="#000" stroke-width="12"/><circle cx="98" cy="96" r="17" fill="#000"/><path d="M98 107v19.94" stroke="#000" stroke-width="12" stroke-linecap="round"/></svg>
